X: 157
T:Gift of the Fairies, The
M:9/8
L:1/8
R:slip jig
D:James Kelly: Traditional Irish Music
Z:Devin McCabe
K:D
A/2B/2AG Add Add | A/2B/2AG Add fAg | A/2B/2AG Add Add | =cAG A/2B/2AG F
ED :|
!~a3 fab afd | afd dfa baf | ~a3 fab afd | =cAG A2G FED |
!~a3 fab afd | afd dfa baf | ~a3 baf afd |^cAG A/2B/2AG FED ||
